X:1
T:Zur Trauung
T:Josef Rheinberger
T:Paul Baehr
T:Zur Trauung
T:WoO 018
T:CPDL - Creative Commons Attribution Non Commercial 3.0
T:CPDL - Creative Commons Attribution Non Commercial 3.0
T:CPDL - Creative Commons Attribution Non Commercial 3.0
T:CPDL - Creative Commons Attribution Non Commercial 3.0
T:CPDL - Creative Commons Attribution Non Commercial 3.0
T:CPDL - Creative Commons Attribution Non Commercial 3.0
T:CPDL - Creative Commons Attribution Non Commercial 3.0
C:Josef Rheinberger
Z:Paul Baehr
Z:CPDL - Creative Commons Attribution Non Commercial 3.0
%%score [ ( 1 2 ) 3 4 ]
L:1/8
Q:1/4=63
M:4/4
K:Eb
V:1 treble nm="Sopran\nAlt"
V:2 treble 
V:3 treble-8 nm="Tenor"
V:4 bass nm="Bass"
V:1
"^Feierlich"!p! G3 E | G2 F2 c3 A | c2 B2!<(!!<(! E2 F2 | G3 B!<)!!<)!!f! e2 dc | d4 z2 F>F | %5
w: Fei- er-|glo- cken- klän- ge|schwe- ben durch die|kla- re Früh- lings- *|luft; Lust und|
 G2 F2 z2 B>B | c2 B2 z2 B>=B | c2 d2 (e g2) f | f4 z2!p! F>F | G2 F2 z2 d>f | e2 d2!f! e2 =e2 | %11
w: Lie- be, Licht und|Le- ben stei- gen|auf aus Nacht _ und|Gruft. Rei- cher|Se- gen taut her-|nie- der in des|
 f2 c2 d_e/d/ cB | (e2 B2) z2 B>B | !>!=B2 c2 FG AF | BG E2 A3 A | A2 G2 c3 B | %16
w: Len- zes duft'- * * gen *|Weh'n, _ ju- belnd|grei- fen tau- * send *|Lie- * der hof- nungs-|vol- les Auf- er-|
 B2[Q:1/4=60]"^rit." e4 !^!d2 | !^!c2 EG G2 F2 | !fermata!E4 !fermata!z2 || %19
w: stehn, hoff~\- *|* * * Auf- er-|stehn.|
[M:3/4][Q:1/4=60]"^Noch langsamer"!pp! E>E | E2 F2 F>F | A2 G2 GG |!<(! G>A c3 B | _d4!<)!!f! BB | %24
w: Auf den|Flu- ren steht's ge-|schrie- ben was in|Men- schen- her- zen|spricht: oh- ne|
 !tenuto!e3 e ef | !tenuto!e2 c2!p! e_d | B3 B _d>d | c4!pp! E>E | (E2 F)F F>F | A2 G2 G>G | %30
w: End' ist Got- tes|Lie- ben, sei- ne|Treu- e wan- ket|nicht! Und mit|stau- * nen- der Ge-|bär- de blickst du|
!<(! GA c3 B | _d4!<)!!f! BB | e3 !tenuto!e !tenuto!g!tenuto!f | e2 c z!p! eA | %34
w: auf das Wort des|Herrn, sei- ne|Lieb' ent- quillt der|Er- de, sei- ne|
 BF[Q:1/4=60]"^rit." A3 G | !fermata!A4 ||[M:4/4][Q:1/4=63]"^Tempo I"!f! c>c | c4 z c c>c | %38
w: Macht grüßt dich im|Stern.|Und nun|schau' in dei- ne|
 _d2 d2 z2 d>d | =d3 d d3 f | (f2 A2) z2!p! G>E | G2 F2 c3 A | c2 B2!<(! E2 F2 | %43
w: See- le, wie denn|Lie- be neu er-|stand; _ und im|Treu- en dich ver-|mäh- le, e- wig|
 G3 B!<)!!f! e2 dc | d4 z2!p! F>F | G2 F2 B3 B | c2 B2 z2!f! B>=B | c2 d2 | (e g2) f | %49
w: ei- nend Herz und *|Hand. Was auch|im- mer dich ge-|trof- fen, wel- ches|Los dir|ward _ zu-|
 f4!ff! (g2 f)e | e2 c2 e2 =d=A | c2 B2!p! B=A B=B | c2 AF !>!A3 G | G6 z2 | z2!ff! g4 ec | %55
w: teil: such' _ im|Glau- ben, Lie- ben, *|Hof- fen Herz- * ens- *|trost und _ See- len-|heil,|such' im _|
 B2 G2!p! B2 c2 | B2 A2!f! c2 e=d | e4!p! E3"^-" F | (G2 B2) (E2 G2) | %59
w: Glau- ben, Lie- ben,|Hof- fen Her- zens- *|trost, Her- zens-|trost _ und _|
!<(! (F4-!<)!!>(! FA) G2!>)! | !fermata!!stemless!E8 |] %61
w: Se- * * len-|heil!|
V:2
 E3 E | E2 D2 D3 D | E2 E2 E2 DC | B,E GB B2 =A2 | B4 x2 D>D | E2 D2 x2 A>A | A2 A2 x2 F>F | %7
w: |||kla- * re _ _ _|_|||
 GB BA G3 =A | B4 x2 D>D | D2 D2 x2 F>A | G3 F E2 G2 | F2 F2 F2 F2 | E4 x2 E>E | E2 E2 D2 D2 | %14
w: ||* * * her-|nie- der * *||||
 _D2 C2 E3 E | D2 E2 AG F2 | G4 !^!E2 !^!E2 | !^!E2 E2 E2 D2 | E4 x2 ||[M:3/4] E>E | C2 C2 C>C | %21
w: |* * Auf- * er-|stehn, hoff- nungs-|vol- les * *||||
 _D2 D2 B,B, | E>E E2 F2 | E4 GG | A3 A AA | A2 A2 EF | F2 E2 F>F | (=E2 _E2) E>E | C3 C C>C | %29
w: |Men- schen- her- zen||||Treu- e * *|||
 _D2 D2 B,>B, | EE E2 F2 | E4 GG | A3 A AA | A2 A x E=E | FF _D3 D | C4 ||[M:4/4] E>E | %37
w: |* * Wort des|||||||
 =E4 x E E>E | F2 F2 x2 A>A | A3 A A3 A | (A2 F2) x2 E>E | E2 D2 D3 D | E2 E2 E2 DC | %43
w: ||||||
 B,E GB B2 =A2 | B4 x2 D>D | E2 D2 A3 A | A2 A2 x2 F>F | (G B2) A | G2 =A2 | B4 (B2 _A)G | %50
w: ei- * nend _ _ _|_|||Los _ dir|ward zu-|teil: * * *|
 A2 A2 AG ^F2 | ^F2 G2 E2 _D2 | C2 E2 E2 =D2 | E6 x2 | x2 e4 cA | G2 E2 E3 E | E2 E2 E2 F2 | %57
w: |||||* * Lie- ben,||
 E4 E2 E2 | E4 E4 | (E2 DC) D4 | B,8 |] %61
w: * Her- zens-|trost und|Se- * * len-|heil!|
V:3
!p! B3 G | B2 B2 B3 B | B2 B2!<(! B2 A2 | GB ef!<)!!f! g2 fe | d4 z2 B>B | B2 B2 z2 f>f | %6
w: Fei- er-|glo- cken- klän- ge|schwe- ben durch die|kla- * re _ Früh- lings- *|luft; Lust und|Lie- be, Licht und|
 f2 f2 z2 d>d | e2 f2 e3 e | d4 z2!p! B>B | B2 B2 z2!mf!!mf! =B>B | c2 =B2!f! c2 _d2 | %11
w: Le- ben stei- gen|auf aus Nacht und|Gruft. Rei- cher|Se- gen taut her-|nie- der in des|
 c2 fc B2 cd | B4 z2 B>B | !>!=A2 A2 B2 B2 | E3 A c3 c | B2 B2 d2 d2 | e4 !^!c2 !^!B2 | %17
w: Len- zes * duft'- gen *|Weh'n, ju- belnd|grei- fen tau- send|Lie- der hof- nungs-|vol- les Auf- er-|stehn, hof- nungs-|
 !^!c2 c2 B3 A | !fermata!G4 !fermata!z2 ||[M:3/4]!pp! E>E | E2 E2 E>E | E2 E2 EE |!<(! E>E A2 A2 | %23
w: voll- les Auf- er-|stehn.|Auf den|Flu- ren steht's ge-|schrie- ben was in|Men- schen- her- zen|
 (G2 e2)!<)!!f! ee | !tenuto!e3 e ee | !tenuto!e2 e2!p! AA | A2 G2 A>A | G4!pp! E>E | E3 E E>E | %29
w: spricht: _ oh- ne|End' ist Got- tes|Lie- ben, sei- ne|Treu- e wan- ket|nicht! Und mit|stau- nen- der Ge-|
 E2 E2 E>E |!<(! EE A2 A2 | (G2 e2)!<)!!f! ee | e3 !tenuto!e !tenuto!e!tenuto!e | e2 e z!p! AA | %34
w: bär- de blickst du|auf das Wort des|Herrn, * sei- ne|Lieb' ent- quillt der|Er- de, sei- ne|
 A_d (B e2) e | !fermata!e4 ||[M:4/4]!f! c>c | B4 z B B>B | A2 A2 z2 _c>c | B3 B B3 B | %40
w: Macht grüßt dich _ im|Stern.|Und nun|schau' in dei- ne|See- le, wie denn|Lie- be neu er-|
 B4 z2!p! B>G | B2 B2 B3 B | B2 B2!<(! B2 A2 | GB ef!<)!!f! g2 fe | d4 z2!p! B>B | B2 B2 f3 f | %46
w: stand; und im|Treu- en dich ver-|mäh- le, e- wig|ei- * nend _ Herz und *|||
 f2 f2 z2!f! d>d | e2 f2 | e2 e2 | d4!ff! e3 e | e2 e2 c2 =Ad | e2 d2!p! e2 E2 | E2 c2 !>!F2 B2 | %53
w: ||||||trost und See- len-|
 E2!ff! g4 ec | B2 G2 e2 e2 | e2 B2!p! _d3 d | _d2 c2!f! c2 A2 | (A2 G2)!p! A2 =A2 | %58
w: heil, such' im _|Glau- ben, Lie- ben,|Hof- fen, Lie- ben,|Hof- fen Her- zens-|trost, _ Her- zens-|
 (B2 G2) (c2 B2) |!<(! (=A2 F2)!<)!!>(! (B3 _A)!>)! | !fermata!!stemless!G8 |] %61
w: trost _ und _|Se- * len- *|heil!|
V:4
!p! E,3 E, | G,,2 B,,2 A,3 F, | A,2 G,2!<(! G,,2 B,,2 | E,3 D,!<)!!f! C,2 F,2 | %4
w: ||||
 B,,2 F,>G, B,2 A,2- | A,2 A,>F, E,2 D,2- | D,2 D,>F, B,4- | B,2 B,2 C3 F, | %8
w: * Lust und Lie- be,|_ Licht und Le- ben|_ stei- gen auf|_ aus Nacht und|
 B,2!p! B,,>B,, B,2 A,2- | A,2!mf! A,>F, A,2 G,2- | G,2!f! G,>G, C2 B,2 | =A,4 _A,4 | %12
w: Gruft. Rei- cher Se- gen|_ taut her- nie- der|_ in des Len- zes|duft'- gem|
 G,4 z2 G,>G, | !>!_G,2 F,2 A,2 A,,2 | G,,2 A,,2 z2 F,>F, | B,,C, D,E, F,G, A,B, | %16
w: Weh'n, * *||* * hof- nungs\-||
 G,4 !^!C2 !^!G,2 | !^!A,2 =A,2 B,2 B,,2 | !fermata!E,4 !fermata!z2 ||[M:3/4]!pp! E,>E, | %20
w: ||||
 A,,2 A,,2 A,,>A,, | B,,2 B,,2 _D,D, |!<(! C,>C, C,2 =D,2 | (E, G,2 B,)!<)!!f! _DD | %24
w: ||||
 !tenuto!C3 C C_D | !tenuto!C2 A,2!p! C,_D, | E,2 E,2 B,,>B,, | C,4!pp! E,>E, | A,,3 A,, A,,>A,, | %29
w: |||||
 B,,2 B,,2 _D,>D, |!<(! C,C, C,2 =D,2 | (E, G,2 B,)!<)!!f! _DD | C3 !tenuto!C !tenuto!E!tenuto!_D | %33
w: ||||
 C2 A, z!p! C,C, | _D,D, E,3 E, | !fermata!A,,4 ||[M:4/4]!f! A,>A, | G,4 z G, G,>G, | %38
w: |||||
 F,2 F,2 z2 F,>F, | F,3 F, F,3 =D, | D,4 z2!p! E,>E, | B,,2 B,2 A,3 F, | A,2 G,2!<(! G,,2 B,,2 | %43
w: |||||
 E,3 D,!<)!!f! C,2 F,2 | B,,2 F,>G, B,2 A,2- | A,2 A,>F, E,2 D,2- | D,2!f! D,>F, B,4- | B,2 B,2 | %48
w: ei- nend Herz und|Hand. Was auch im- mer|_ dich ge- trof- fen,|_ wel- ches Los|_ dir|
 C2 F,2 | B,2!ff! B,>B, _D4 | C2 A,2 C,2 =D,2 | G,2 G,2!p! G,,3 G,, | A,,3 A,, !>!B,,2 B,,2 | %53
w: ward zu-|teil: such' im Glau-|ben, im Lie- ben,|Hof- fen Herz- zens-|trost und See- len-|
 C,2!ff! E4 CA, | G,2 E,2 C,3 D, | E,F, G,2!p! G,,3 G,, | A,,2 A,2!f! A,2 =B,,2 | C,4!p! C,2 F,,2 | %58
w: heil, * * *|||||
 B,,4 B,,4 |!<(! B,,6!<)!!>(! B,,2!>)! |"^19.3.1896" !fermata!!stemless![E,,E,]8 |] %61
w: |Se- len-|heil!|

